X:1
T:Title
%%score { 1 | ( 2 3 ) }
L:1/8
Q:1/4=112
M:4/4
K:G
V:1 treble nm="Grand Piano"
V:2 bass 
V:3 bass 
V:1
 [DB]2 [B,G]2 [Ec]2 [DB]2 | [CA][B,G][CA][DB] [B,G]4 | [Bd]2 [GB]2 [ce]2 [Bd]2 | [Ac]B[Ac]d [GB]4 | %4
w: W.~C.~Williams * * *||||
 [FA]2 [GB]2 [FA]3 [EG] | [DF]2 [EG]2 [FA]4 | B2 c2 B3 [EA] | [DG]2 [CF]2 [B,G]4 | d2 e2 d3 B | %9
w: |||||
 [CFA][B,G][CFA][DGB] G4 | c2 d2 c3 [FA] | [GB][FA]B^c [Fd]4 | d2 e2 d3 [GB] | [Gc]2 [Gd]2 [Ge]4 | %14
w: |||||
 [Gd]2 [DB]2 [B,EG]3 [EAc] | [DGB]2 [CFA]2 [G,B,G]4 |] %16
w: ||
V:2
 [G,,G,]2 [G,,G,]2 [G,,G,]2 [G,,G,]2 | [D,,D,]2 [D,,D,]2 [G,,G,]4 | %2
 [G,,G,]2 [G,,G,]2 [G,,G,]2 [G,,G,]2 | z[K:treble] G z B[K:bass] [G,,G,]4 | %4
 [D,D]2 [D,D]2 [D,D]3 [D,D] | [D,A,]2 [D,D]2 [D,D]4 | [G,D]2 [G,E]2 [G,D]3 [C,C] | %7
 [D,B,]2 [D,A,]2 [G,,G,]4 | [G,B,G]2 [G,CG]2 [G,B,G]3 [G,DG] | D,D,D,D, [G,B,D]4 | %10
 [D,A,D]2 [D,B,D]2 [D,A,D]3 [D,D] | [G,D][D,D][K:treble][G,DG][A,G] [D,A,]4 | %12
 [G,B,G]2 [G,CG]2 [G,B,G]3[K:bass] [=F,D] | [E,C]2 [D,B,]2 [C,C]4 | [B,,G,]2 [B,,G,]2 E,3 C, | %15
 D,2 D,2 G,,4 |] %16
V:3
 x8 | x8 | x8 | D,2[K:treble] D,2[K:bass] z4 | x8 | x8 | x8 | x8 | x8 | x8 | x8 | x2[K:treble] x6 | %12
 x7[K:bass] x | x8 | x8 | x8 |] %16

